X:80
T:Kenneth Murphy
C:Eric Favreau
R:reel
M:4/4
L:1/8
K:G
B3B edBA | dBAF BAFA | B4 edBA | B2ef gfed |
B3B edBA | dBAF BAFA | EFGA B2ef |1 gfed e4 :|2 gfed e3f |:
gfeg fedf | eB(3BBB dBAF | EB,(3B,B,B, EFGA | B2ef gfed |
eB(3BBB egfe | fdec dBAF | EFGA B2ef | gfed e3f :|

